sprites/streets-v8/_svg/swimming-15.svg

<?xml version="1.0" encoding="UTF-8" standalone="no"?>
<svg
   xmlns:dc="http://purl.org/dc/elements/1.1/"
   xmlns:cc="http://creativecommons.org/ns#"
   xmlns:rdf="http://www.w3.org/1999/02/22-rdf-syntax-ns#"
   xmlns:svg="http://www.w3.org/2000/svg"
   xmlns="http://www.w3.org/2000/svg"
   id="svg2"
   width="23"
   height="23"
   viewBox="0 0 23 23"
   version="1.1">
  <metadata
     id="metadata14">
    <rdf:RDF>
      <cc:Work
         rdf:about="">
        <dc:format>image/svg+xml</dc:format>
        <dc:type
           rdf:resource="http://purl.org/dc/dcmitype/StillImage" />
      </cc:Work>
    </rdf:RDF>
  </metadata>
  <defs
     id="defs12" />
  <ellipse
     id="ellipse4"
     ry="11.5"
     rx="11.5"
     cy="11.5"
     cx="11.5"
     style="fill:#ffffff;stroke:none;" />
  <ellipse
     id="ellipse6"
     ry="10.5"
     rx="10.5"
     cy="11.5"
     cx="11.5"
     style="fill:#a9a199;stroke:none;" />
  <g
     id="g8"
     transform="translate(4,4)">
    <metadata     id="metadata8"><rdf:RDF><cc:Work         rdf:about=""><dc:format>image/svg+xml</dc:format><dc:type           rdf:resource="http://purl.org/dc/dcmitype/StillImage" /><dc:title /></cc:Work></rdf:RDF></metadata><defs     id="defs6" /><path     d="M 10.111794,1.9999995 C 10,1.9999995 9.6764701,2.147058 9.6764701,2.147058 L 6.3529412,3.8235291 C 5.9117648,3.9999997 5.7352941,4.705882 6,5.0588233 L 6.9705883,6.4705879 3,8.4999995 l 2,1.5 2.5,-1.5 2.5,1.5 1,-1 -3,-4 2.558823,-1.5294117 C 11.088235,3.2058818 11,2.7647053 11,2.4999995 c 0,-0.2168753 -0.358794,-0.5 -0.888206,-0.5 z M 7.5,9.9999995 5,11.5 2.5,9.9999995 0,11.5 0,13 2.5,11.5 5,13 7.5,11.5 10,13 12,11.5 15,13 15,11.5 12,9.9999995 10,11.5 Z"     id="path16388"     style="fill:#ffffff;fill-opacity:1" /><circle     r="1.75"     cy="6.75"     cx="12.25"     id="path3338"     style="opacity:1;fill:#ffffff;fill-opacity:1;stroke:none;stroke-width:1;stroke-linecap:round;stroke-linejoin:miter;stroke-miterlimit:4;stroke-dasharray:none;stroke-dashoffset:0;stroke-opacity:1" />
  </g>
</svg>

<?xml version="1.0" encoding="utf-8"?>
<!-- Generator: Adobe Illustrator 17.1.0, SVG Export Plug-In . SVG Version: 6.00 Build 0)  -->
<!DOCTYPE svg PUBLIC "-//W3C//DTD SVG 1.1//EN" "http://www.w3.org/Graphics/SVG/1.1/DTD/svg11.dtd">
<svg version="1.1"
	 id="svg2" xmlns:svg="http://www.w3.org/2000/svg" xmlns:cc="http://creativecommons.org/ns#" xmlns:dc="http://purl.org/dc/elements/1.1/" xmlns:rdf="http://www.w3.org/1999/02/22-rdf-syntax-ns#"
	 xmlns="http://www.w3.org/2000/svg" xmlns:xlink="http://www.w3.org/1999/xlink" x="0px" y="0px" width="23px" height="23px"
	 viewBox="0 0 23 23" enable-background="new 0 0 23 23" xml:space="preserve">
<ellipse id="ellipse4" fill="#FFFFFF" cx="11.5" cy="11.5" rx="11.5" ry="11.5"/>
<ellipse id="ellipse6" fill="#A9A199" cx="11.5" cy="11.5" rx="10.5" ry="10.5"/>
<g id="g8" transform="translate(4,4)">
	<path id="path16388" fill="#FFFFFF" d="M10.1,2C10,2,9.7,2.1,9.7,2.1L6.4,3.8C5.9,4,5.7,4.7,6,5.1l1,1.4l-4,2L5,10l2.5-1.5L10,10
		l1-1L8,5l2.6-1.5c0.5-0.3,0.4-0.7,0.4-1C11,2.3,10.6,2,10.1,2z M7.5,10L5,11.5L2.5,10L0,11.5V13l2.5-1.5L5,13l2.5-1.5L10,13l2-1.5
		l3,1.5v-1.5L12,10l-2,1.5L7.5,10z"/>
	<circle id="path3338" fill="#FFFFFF" cx="12.2" cy="6.8" r="1.8"/>
</g>
</svg>
